svg/fluentui-system-icons/ic_fluent_person_sync_24_filled.svg

<svg width="24" height="24" viewBox="0 0 24 24" fill="none" xmlns="http://www.w3.org/2000/svg">
<path d="M11 17.5C11 16.211 11.3752 15.0097 12.0223 13.9992H5.25278C4.01076 13.9992 3.00391 15.0061 3.00391 16.2481V17.1681C3.00391 17.7401 3.18231 18.298 3.51427 18.7639C5.05643 20.9282 7.5794 22.0004 11.0004 22.0004C11.6002 22.0004 12.1725 21.9674 12.7168 21.9014C11.6509 20.7436 11 19.1978 11 17.5ZM11.0004 2.00391C13.7618 2.00391 16.0004 4.24248 16.0004 7.00391C16.0004 9.76533 13.7618 12.0039 11.0004 12.0039C8.23894 12.0039 6.00036 9.76533 6.00036 7.00391C6.00036 4.24248 8.23894 2.00391 11.0004 2.00391ZM12 17.5C12 20.5376 14.4624 23 17.5 23C20.5376 23 23 20.5376 23 17.5C23 14.4624 20.5376 12 17.5 12C14.4624 12 12 14.4624 12 17.5ZM20.5 14C20.7761 14 21 14.2239 21 14.5V16.5C21 16.7761 20.7761 17 20.5 17H18.5C18.2239 17 18 16.7761 18 16.5C18 16.2239 18.2239 16 18.5 16H19.5003C19.0436 15.392 18.3174 15 17.5 15C16.6666 15 15.9283 15.4073 15.4733 16.036C15.3113 16.2597 14.9987 16.3098 14.775 16.1478C14.5514 15.9859 14.5013 15.6733 14.6632 15.4496C15.2982 14.5724 16.3323 14 17.5 14C18.4798 14 19.3651 14.4027 20 15.0506V14.5C20 14.2239 20.2239 14 20.5 14ZM15 19.9494V20.5C15 20.7761 14.7761 21 14.5 21C14.2239 21 14 20.7761 14 20.5V18.5C14 18.2239 14.2239 18 14.5 18H16.5C16.7761 18 17 18.2239 17 18.5C17 18.7761 16.7761 19 16.5 19H15.4998C15.9564 19.608 16.6827 20 17.5 20C18.2663 20 18.9518 19.6558 19.4112 19.1118C19.5893 18.9008 19.9048 18.8742 20.1158 19.0523C20.3268 19.2305 20.3534 19.546 20.1752 19.7569C19.534 20.5164 18.5732 21 17.5 21C16.5203 21 15.6349 20.5973 15 19.9494Z" fill="#212121"/>
</svg>

<svg xmlns="http://www.w3.org/2000/svg" width="24" height="24"><path d="M11 17.5a6.47 6.47 0 0 1 1.022-3.5h-6.77a2.249 2.249 0 0 0-2.248 2.248v.92c0 .572.178 1.13.51 1.596C5.056 20.928 7.58 22 11 22c.6 0 1.172-.033 1.717-.099A6.477 6.477 0 0 1 11 17.5Zm0-15.496a5 5 0 1 1 0 10 5 5 0 0 1 0-10ZM12 17.5a5.5 5.5 0 1 0 11 0 5.5 5.5 0 0 0-11 0Zm8.5-3.5a.5.5 0 0 1 .5.5v2a.5.5 0 0 1-.5.5h-2a.5.5 0 0 1 0-1h1a2.496 2.496 0 0 0-2-1c-.833 0-1.572.407-2.027 1.036a.5.5 0 0 1-.81-.586A3.496 3.496 0 0 1 17.5 14c.98 0 1.865.403 2.5 1.05v-.55a.5.5 0 0 1 .5-.5ZM15 19.95v.55a.5.5 0 0 1-1 0v-2a.5.5 0 0 1 .5-.5h2a.5.5 0 0 1 0 1h-1c.456.608 1.183 1 2 1 .766 0 1.452-.344 1.911-.888a.5.5 0 0 1 .764.645A3.493 3.493 0 0 1 17.5 21a3.49 3.49 0 0 1-2.5-1.05Z"/></svg>
